svgs/light/rectangle-vertical.svg

<svg xmlns="http://www.w3.org/2000/svg" viewBox="0 0 448 512"><!-- Font Awesome Pro 6.0.0-alpha2 by @fontawesome - https://fontawesome.com License - https://fontawesome.com/license (Commercial License) --><path d="M384 0H96C60.654 0 32 28.654 32 64V448C32 483.346 60.654 512 96 512H384C419.346 512 448 483.346 448 448V64C448 28.654 419.346 0 384 0ZM416 448C416 465.645 401.645 480 384 480H96C78.355 480 64 465.645 64 448V64C64 46.355 78.355 32 96 32H384C401.645 32 416 46.355 416 64V448Z"/></svg>

<svg xmlns="http://www.w3.org/2000/svg" viewBox="0 0 448 512"><!--! Font Awesome Pro 6.0.0-alpha3 by @fontawesome - https://fontawesome.com License - https://fontawesome.com/license (Commercial License) --><path d="M384 0L96 0c-35.35 0-64 28.65-64 64v384c0 35.35 28.65 64 64 64h288c35.35 0 64-28.65 64-64V64C448 28.65 419.3 0 384 0zM416 448c0 17.64-14.36 32-32 32H96c-17.64 0-32-14.36-32-32V64c0-17.64 14.36-32 32-32h288c17.64 0 32 14.36 32 31.1V448z"/></svg>
